!! 00000] TT[WS
!!!OTL: Da niaochuang
!!!ARE: Asia, China,ÿShanxi Heshun
!! Ethnic Group: Han
!! WI, 196
!!!SCT: J0234
!!!YEM: Copyright 1995, estate of Helmut Schaffrath.
**kern
*ICvox
*Ivox
*M2/4
*k[f#c#g#]
*A:
{4cc#
8cc#
8ee
=1
4ff#
4cc#
=2
8cc#
8b
8a
8g#
=3
8ff#
8ee
4f#}
=4
{4ff#
4ee
=5
4ff#
4ee
=6
8ff#
8ee
8dd
8cc#
=7
2b}
=8
{8ff#
8ee
8dd
8cc#
=9
4.b
8a
=10
8f#
8e
8f#
8a
=11
2b}
==
!!!AGN: Xiaodiao. Qingge, Aisu
!!!ONB: ESAC (Essen Associative Code) Database: CHINA
!!!AMT: simple duple
!!!AIN: vox
!!!EED: Helmut Schaffrath
!!!EEV: 1.0
*-
